build/finance/PercentSolid.svg

<svg xmlns="http://www.w3.org/2000/svg" fill="none" viewBox="0 0 24 24" focusable="false"><path d="M0 0H24V24H0z"/><path fill="#74767B" fill-rule="evenodd" d="M12 3C7.02944 3 3 7.02944 3 12C3 16.9706 7.02944 21 12 21C16.9706 21 21 16.9706 21 12C21 7.02944 16.9706 3 12 3ZM7.30067 16.699C7.04638 16.4456 7.04601 16.0345 7.29985 15.7806L15.7851 7.29533C16.039 7.04149 16.4509 7.04112 16.7052 7.29451C16.9595 7.5479 16.9599 7.95909 16.706 8.21293L8.22073 16.6982C7.96689 16.9521 7.55496 16.9524 7.30067 16.699ZM7.1001 9.5C7.1001 8.67157 7.77167 8 8.6001 8C9.42852 8 10.1001 8.67157 10.1001 9.5C10.1001 10.3284 9.42852 11 8.6001 11C7.77167 11 7.1001 10.3284 7.1001 9.5ZM15.3999 13C14.5715 13 13.8999 13.6716 13.8999 14.5C13.8999 15.3284 14.5715 16 15.3999 16C16.2283 16 16.8999 15.3284 16.8999 14.5C16.8999 13.6716 16.2283 13 15.3999 13Z"/></svg>

<svg xmlns="http://www.w3.org/2000/svg" fill="none" viewBox="0 0 24 24" focusable="false"><path fill="#74767B" fill-rule="evenodd" d="M12 3c-4.98 0-9 4.02-9 9 0 4.97 4.02 9 9 9a9 9 0 0 0 9-9c0-4.98-4.03-9-9-9M7.3 16.69a.637.637 0 0 1-.01-.91l8.49-8.49c.25-.25.67-.25.92 0s.25.66 0 .92l-8.48 8.48a.64.64 0 0 1-.92 0M7.1 9.5c0-.83.67-1.5 1.5-1.5.82 0 1.5.67 1.5 1.5 0 .82-.68 1.5-1.5 1.5-.83 0-1.5-.68-1.5-1.5m8.29 3.5c-.82 0-1.5.67-1.5 1.5 0 .82.68 1.5 1.5 1.5.83 0 1.5-.68 1.5-1.5 0-.83-.67-1.5-1.5-1.5"/></svg>
